!!!COM: Richard Strauss
!!!CNT: Deutscher
!!!TXO: Deutsche 
!!!OTL: Geduld
!!!OPS: Opus 10
!!!ONM: No. 5
!!!LYR: Hermann v. Gilm
!!!ENC: Brian Bice
!!!YOR: Lieder, Complete Edition, vol. 1
!!!ODT: 1885
!!NB: Vocal melody and text only encoded.
**kern	**silbe
*clefG2	*
*k[b-e-a-d-]	*
*M6/8	*
=6	=6
4r	.
8r	.
8r	.
8r	.
{8e-	{Ge-
=7	=7
4.e-	-duld,
8r	.
8r	.
8a-	sagst
=8	=8
4.e-	du
8r	.
8r	.
8e-	und
=9	=9
4cc	zeigst
8cc	mit
4b-	wei-
8a-	-ssem
=10	=10
4.a-	Fin-
4.g}	-ger}
=11	=11
8r	.
8r	.
{8g	{auf
4g	mei-
8g	-ner
=12	=12
4.g	Zu-
4.e-	-kunft
=13	=13
4b-	fest
8b-	ge-
4a-	-schloss'-
8g	-ne
=14	=14
[4.a-	Tu2r
4a-]}	|}
8r	.
=15	=15
8r	.
8r	.
{[8g	{Ist
8g]	|
8g	die
8g	Mi-
=16	=16
4f	-nu-
8e-	-te,
8r	.
8e-	die
8f	da
=17	=17
4a-	lebt,
8g	ge-
4cc	-rin-
8g}	-ger,}
=18	=18
8r	.
{8e-	{als
16e-	je-
16f	-ne
4a-	un-
8g	-ge-
=19	=19
8f	-bor'-
8e-	-nen?
8r	.
4c	sa-
8dn	-ge
=20	=20
4.e-}	mir!}
4r	.
8r	.
=21	=21
{4.e-	{kannst
4e-	mit
8e-	der
=22	=22
[4.a-	Lie-
4a-]	|
8a-	-be
=23	=23
4b-	du
8b-	den
(8b-	Lenz
8cc)	|
8dd-	ver-
=24	=24
4.e-	-schie-
4a-}	-ben,}
8r	.
=25	=25
8r	.
8r	.
{8a-	{dann
4a-	borg'
8a-	ich
=26	=26
[4.a-	dir
8a-]	|
8a-	fu2r
16a-	ei-
16a-	-ne
=27	=27
[4.an	E-
4an]	|
8an	-wig-
=28	=28
[4.an	-keit,
4an]}	|}
8r	.
=29	=29
4r	.
8r	.
{8f	{doch
8f	mit
8f	dem
=30	=30
(4.dd	Fru2h-
4cc)	|
8b-	-ling
=31	=31
4a-	en-
8a-	-det
4a-	auch
8a-	das
=32	=32
2.ff	Lei-
=33	=33
4dd-}	-ben}
{8f	{und
4cc	kei-
8b-	-ne
=34	=34
4a-	Her-
8a-	-zens-
4g	-schul-
8a-	-den
=35	=35
4.b-	zahlt
4.g	die
=36	=36
[4.a-	Zeit.
4a-]}	|}
8r	.
=37	=37
4r	.
8r	.
8r	.
8r	.
{8e-	{Ge-
=38	=38
4.e-	-duld,
8r	.
8r	.
8a-	sagst
=39	=39
4.e-	du
8r	.
8r	.
8e-	und
=40	=40
4cc	senkst
8cc	die
4b-	schwar-
8a-	-ze
=41	=41
4.a-	Lok-
4.g}	-ke,}
=42	=42
8r	.
8r	.
{8g	{und
4g	stu2nd-
8g	-lich
=43	=43
4r	.
8r	.
4g	fal-
8e-	-len
=44	=44
4b-	Blu-
8b-	-men-
4a-	bla2t-
8g	-ter
=45	=45
[4.a-	ab,
4a-]}	|}
8r	.
=46	=46
4r	.
{8g	{und
4g	stu2nd-
8g	-lich
=47	=47
4.g	for-
4.dn	-dert
=48	=48
4r	.
8r	.
4d-	ei-
8d-	-ne
=49	=49
4f	To-
8e-	-ten-
4d-	-glok-
8d-}	-ke}
=50	=50
4r	.
{8c	{der
4c	Tra2-
8c	-ne
=51	=51
[4.g	letz
4g]	|
8e-	-tes
=52	=52
4e-	Fahr-
8f	-geld
4dn	fu2r
8dn	das
=53	=53
[4.c	Grab.
4c]}	|}
8r	.
=54	=54
{4.e-	{Sieh
4e-	nur
8e-	die
=55	=55
[4.a-	Ta-
4a-]	|
8a-	-ge
=56	=56
4b-	schnell
8b-	vor-
(8b-	-u2-
8cc)	|
8dd-	-ber
=57	=57
4.e-	rin-
4a-}	-nen,}
8r	.
=58	=58
8r	.
8r	.
{[8a-	{horch,
8a-]	|
8a-	wie
8a-	sie
=59	=59
4.a-	mah-
4.a-	-nend
=60	=60
4an	klop-
8an	-fen
8r	.
8an	au
8an	die
=61	=61
[4.an	Brust,
4an]}	|}
{8an	{mach
=62	=62
4b-	auf,
8b-	mach
[4.dd-	auf,
=63	=63
4.dd-]	|
8dd-	was
8dd-	wir
8dd-	nicht
=64	=64
[4.ee-	heut'
4ee-]	|
8dd-	ge-
=65	=65
4.dd-	-win-
4.cc-}	-nen,}
=66	=66
8r	.
8r	.
{8cc-	{ist
4cc-	mor-
8b-	-gen
=67	=67
[4.ee-	un-
4ee-]	|
8cc-	-er-
=68	=68
4cc-	-setz-
8cc-	-li-
4b-	-cher
8a-	Ver-
=69	=69
[4.e-	-lust.
4e-]}	|}
8r	.
=75	=75
4r	.
8r	.
8r	.
8r	.
{8e-	{Ge-
=76	=76
4.e-	-duld,
8r	.
8r	.
8a-	sagst
=77	=77
4.e-	du
8r	.
8r	.
8e-	und
=78	=78
4cc-	sankst
8cc-	die
4b-	Au-
8a-	-gen-
=79	=79
4.a-	-li-
4.g-}	-der,}
=80	=80
8r	.
8r	.
{8g-	{ver-
4.g-	-neint
=81	=81
4r	.
8r	.
8f	ist
8f	mei-
8f	-ne
=82	=82
4g-	Fra-
8f	-ge
8r	.
8f	an
8f	das
=83	=83
[4.b-	Glu2ck;
4b-]}	|}
8r	.
=84	=84
4r	.
8r	.
{8b#	{so
8b#	le-
8b#	-be
=85	=85
4.cc#	wohl,
8cc#	ich
8cc#	seh'
8cc#	dich
=86	=86
[4.ddn	nim-
4ddn]	|
8ddn	-mer
=87	=87
2.ggn	wie-
=88	=88
4g}	-der,}
{8g	{so
4g	will's
8an	mein
=89	=89
4cc	un-
8b-	-er-
8.b-	-bitt-
16b-	-li-
16an	-ches
16b-	Ge-
=90	=90
[4.g	schick.
4g]}	|}
8r	.
=91	=91
4r	.
8r	.
{8g	{Du
8g	hast
8g	ge-
=92	=92
[2.a-	-glaubt,
=93	=93
4a-]	|
8a-	weil
4a-	and'-
8a-	-re
=94	=94
8r	.
8r	.
[8a-	war-
4a-]	|
8a-}	-ten}
=95	=95
{4cc-	{mu2s-
8a-	-sen
8a-	und
8a-	war-
8a-	-ten
=96	=96
4.ee-	ko2n-
4.e-}	-nen,}
=97	=97
{4gg-	{kann
8ff-	und
4ee-	muss
8ddn	ich's
=98	=98
[4.ee-	auch;
8ee-]	|
8r	.
[8b-	ich
=99	=99
8b-]	|
8a#	a-
8a#	-ber
4cc#	hab'
8bn	zum
=100	=100
2.een	Lie-
=101	=101
4.een}	-ben}
{4een	{und
8een	zum
=102	=102
2.een	Ku2s-
=103	=103
[4.ee-	-sen
4ee-]}	|}
{8ee-	{nur
=104	=104
[4.gg	ei-
4gg]	|
8een	-nen
=105	=105
4.ddn	Fru2h-
[4.cc	-ling,
=106	=106
4cc]}	|}
8r	.
{4cc	{wie
8cc	der
=107	=107
[2.ee-	Ro-
=108	=108
4ee-]	|
8ee-	-sen-
[4.gg-	-strauch,
=109	=109
4gg-]}	|}
8r	.
{4.a-	{nur
=110	=110
(4.ee-	ei-
4ddn)	|
8dd-	-nen
=111	=111
4.cc	Fru2h-
[4.cc-	-ling,
=112	=112
4cc-]}	|}
8r	.
{4.cc-	{nur
=113	=113
[4.b-	ei-
4b-]	|
8b-	-nen,
=114	=114
[4.ee-	ei-
4ee-]	|
8cc	-nen
=115	=115
2.a-	Fruh-
=116	=116
4a-}	-ling,}
8r	.
{4a-	{wie
8a-	der
=117	=117
[2.a-	Ro-
=118	=118
4.a-]	|
4.a-	-sen-
=119	=119
[2.a-	-strauch.
=120	=120
4a-]}	|}
8r	.
4r	.
8r	.
*-	*-
